X:1
T:James Gibb editions
T:Come, ye thankful people, come  - Barnby
%%score [ ( 1 2 ) ( 3 4 ) ]
L:1/8
Q:1/4=96
M:4/4
K:D
V:1 treble nm="Midi_74"
V:2 treble 
V:3 bass nm="Midi_74"
V:4 bass 
V:1
"^Come, ye thankful people, come""^Henry Alford\n(1810-71)""^Joseph Barnby\n(1838-96)""^77. 77. D" F2 A2 | %1
 F2 ED E2 C2 | D4 || A2 d2 | c2 BA B2 ^G2 | A4 || e2 c2 | d2 A2 e2 c2 | d4 || d2 c2 | %10
 B2 c-d c2 B2 | A4 ||[M:4/4] E2 F2 | G2 G2 F3"^1" B | B4 || G2 A2 | B2 B2 A3 d | d4 || B2 B2 | %19
 e2 c2 B2 A2 | (f2 d2) || B2 G2 |"^1" FG"^1" A2 F2 E2 | D4 || G4 F4 |] %25
V:2
 D2 D2 | D2 A,2 C2 C2 | D4 || D2 F2 | E2 E2 F2 E2 | E4 || A2 A2 | A2 A2 A2 A2 | A4 || D2 E2 | %10
 F2 ED E2 D2 | C4 ||[M:4/4] E2 E2 | E2 E2 ^D3 D | (E2 ^D2) || G2 G2 | G2 G2 F2 F2 | G4 || G2 G2 | %19
 G2 G2 G2 G2 | (F2 A2-) || D2 E2 | D2 D2 B,2 C2 | D4 || D4 D4 |] %25
V:3
 A,2 A,2 | A,2 F,2 G,2 G,2 | F,4 || A,2 A,2 | A,2 C2 B,2 D2 | C4 || C2 E2 | A,2 A,2 C2 E2 | D4 || %9
 A,2 A,2 | A,2 A,2 ^G,2 G,2 | A,4 || %12
[M:4/4]"^1 Come, ye thankful people, come, \nRaise the song of harvest-home; \nAll is safely gathered in, \nEre the winter storms begin. \nGod our Maker doth provide \nFor our wants to be supplied; \nCome to God's own temple, come, \nRaise the song of harvest-home. \n\n2 All the world is God's own field, \nFruit unto his praise to yield; \nWheat and tares together sown \nUnto joy or sorrow grown; \nFirst the blade and then the ear, \nThen the full corn shall appear; \nLord of harvest, grant that we \nWholesome grain and pure may be." C2 =C2 | %13
 B,2 B,2 B,3 B, | B,4 || B,2 =C2 | D2 D2 D2 D2 | (D2 B,2) || %18
"^3 For the Lord our God shall come,\nAnd shall take his harvest home; \nFrom his field shall purge away \nAll that doth offend, that day;\nGive his angels charge at last \nIn the fire the tares to cast; \nBut the fruitful ears to store \nin his garner evermore. \n\n4 Even so, Lord, quickly come,\nBring thy final harvest home; \nGather thou thy people in, \nFree from sorrow, free from sin, \nThere, forever purified, \nIn thy presence to abide; \nCome, with all thine angels, come, \nRaise the glorious harvest-home." D2 E2 | %19
 A,2 C2 D2 E2 | (D2 A,2) || G,2 B,2 | A,2 F,2 G,2 G,2 | F,4 || B,4 A,4 |] %25
V:4
 D,2 F,2 | A,2 A,2 A,,2 A,,2 | D,4 || F,2 D,2 | A,2 C,2 D,2 E,2 | A,4 || =G,2 A,2 | %7
 F,2 A,2 G,2 A,2 | F,4 || F,2 E,2 | D,2 E,F, E,2 E,2 | A,4 ||[M:4/4] A,,2 A,,2 | B,,2 B,,2 A,3 A, | %14
 (G,2 F,2) || E,2 E,2 | D,2 D,2 =C2 C2 | (B,2 G,2) || G,2 E,2 | C,2 A,2 B,2 C2 | (D2 F,2) || %21
 G,2 E,2 | A,2 A,,2 A,,2 A,,2 | D,4 || G,,4 D,4 |] %25

